components/ui-node-icon/src/clean/clean.large.svg

<svg width="32" height="32" viewBox="0 0 32 32" fill="none" xmlns="http://www.w3.org/2000/svg">
  <path fill-rule="evenodd" clip-rule="evenodd" d="M25 9C26.1046 9 27 8.10457 27 7C27 5.89543 26.1046 5 25 5C23.8954 5 23 5.89543 23 7C23 8.10457 23.8954 9 25 9ZM23.7207 15.4798C24.2264 15.6718 24.2353 16.6406 23.7373 16.8518C20.4085 18.2639 17.9629 21.0257 16.7701 23.9361C16.5691 24.4266 15.6441 24.4465 15.4331 23.9603C14.1287 20.9542 11.6955 18.1415 8.13335 16.7606C7.63601 16.5678 7.62496 15.6721 8.12405 15.4839C11.7674 14.1098 14.1098 11.7674 15.4839 8.12405C15.6721 7.62496 16.5426 7.6427 16.7158 8.14719C17.9512 11.7448 20.3205 14.189 23.7207 15.4798Z" fill="var(--tbl--colors--icons--clean--primary)"/>
  <path fill-rule="evenodd" clip-rule="evenodd" d="M6.56119 21.5001C6.795 21.5057 6.99372 21.6726 7.03959 21.9019C7.22141 22.811 7.57783 23.5063 8.07733 24.0164C8.57639 24.5261 9.24635 24.8797 10.103 25.06C10.3344 25.1087 10.5 25.3129 10.5 25.5493C10.5 25.7857 10.3344 25.9899 10.103 26.0386C8.44484 26.3877 7.30016 27.7952 7.03959 29.0981C6.99395 29.3263 6.7969 29.4928 6.56428 29.4998C6.33166 29.5067 6.12499 29.3523 6.06576 29.1272C5.7078 27.767 4.64369 26.3879 2.90194 26.0396C2.67261 25.9937 2.50571 25.795 2.50014 25.5612C2.49458 25.3274 2.65184 25.1209 2.87873 25.0642C3.80107 24.8336 4.47621 24.4751 4.97567 23.9757C5.47514 23.4762 5.83364 22.8011 6.06423 21.8787C6.12095 21.6518 6.32738 21.4946 6.56119 21.5001ZM4.46854 25.5481C5.39118 26.0427 6.07692 26.7963 6.52965 27.6184C6.96747 26.8069 7.65454 26.0643 8.53717 25.5707C8.09646 25.3477 7.70315 25.0636 7.36282 24.716C7.02374 24.3697 6.74468 23.968 6.52469 23.5148C6.29879 23.9555 6.0209 24.3447 5.68278 24.6828C5.33287 25.0327 4.92824 25.3181 4.46854 25.5481Z" fill="var(--tbl--colors--icons--clean--primary)"/>
</svg>

<svg xmlns="http://www.w3.org/2000/svg" width="32" height="32" fill="none" viewBox="0 0 32 32">
  <path fill="var(--tbl--colors--icons--clean--primary)" fill-rule="evenodd" d="M25 9a2 2 0 1 0 0-4 2 2 0 0 0 0 4Zm-1.28 6.48c.506.192.515 1.16.017 1.372-3.328 1.412-5.774 4.174-6.967 7.084-.2.49-1.126.51-1.337.024-1.304-3.006-3.738-5.819-7.3-7.2-.497-.192-.508-1.088-.009-1.276 3.643-1.374 5.986-3.717 7.36-7.36.188-.499 1.059-.481 1.232.023 1.235 3.598 3.604 6.042 7.005 7.333ZM6.561 21.5a.5.5 0 0 1 .479.402c.181.909.538 1.604 1.037 2.114.5.51 1.17.864 2.026 1.044a.5.5 0 0 1 0 .979c-1.658.349-2.803 1.756-3.063 3.06a.5.5 0 0 1-.974.028c-.358-1.36-1.422-2.74-3.164-3.087a.5.5 0 0 1-.023-.976c.922-.23 1.597-.589 2.097-1.088.5-.5.858-1.175 1.088-2.097a.5.5 0 0 1 .497-.379ZM4.47 25.548a5.146 5.146 0 0 1 2.06 2.07 5.173 5.173 0 0 1 2.008-2.047 4.43 4.43 0 0 1-1.174-.855 4.532 4.532 0 0 1-.838-1.201c-.226.44-.504.83-.842 1.168-.35.35-.755.635-1.214.865Z" clip-rule="evenodd"/>
</svg>
